images/service-icon-1.svg

<svg fill="none" height="93" viewBox="0 0 93 93" width="93" xmlns="http://www.w3.org/2000/svg"><g fill="#C9FE6E"><path d="m.0703128 69.4949c.0000001-1.7111 1.3162372-3.0274 3.0273372-3.0274h7.37095c1.7111 0 3.0273-1.3162 3.0273-3.0273v-33.4324c0-1.7111 1.3162-3.0273 3.0274-3.0273h7.3709c1.7111 0 3.0273-1.3163 3.0273-3.0274v-23.297338h13.4256v23.297338c0 1.7111-1.3162 3.0274-3.0273 3.0274h-7.3709c-1.7111 0-3.0274 1.3162-3.0274 3.0273v33.4324c0 1.7111-1.3162 3.0273-3.0273 3.0273h-7.3709c-1.7112 0-3.0274 1.3163-3.0274 3.0274v23.2973h-13.4255875z"/><path d="m26.1585 69.4949c0-1.7111 1.3162-3.0274 3.0274-3.0274h7.3709c1.7111 0 3.0273-1.3162 3.0273-3.0273v-33.4324c0-1.7111 1.3162-3.0273 3.0274-3.0273h7.3709c1.7111 0 3.0273-1.3163 3.0273-3.0274v-23.297338h13.4256v23.297338c0 1.7111-1.3162 3.0274-3.0273 3.0274h-7.3709c-1.7112 0-3.0274 1.3162-3.0274 3.0273v33.4324c0 1.7111-1.3162 3.0273-3.0273 3.0273h-7.3709c-1.7112 0-3.0274 1.3163-3.0274 3.0274v23.2973h-13.4256z"/><path d="m52.2467 69.4949c0-1.7111 1.3162-3.0274 3.0273-3.0274h7.371c1.7111 0 3.0273-1.3162 3.0273-3.0273v-33.4324c0-1.7111 1.3162-3.0273 3.0274-3.0273h7.3709c1.7111 0 3.0273-1.3163 3.0273-3.0274v-23.297338h13.4256v23.297338c0 1.7111-1.3162 3.0274-3.0273 3.0274h-7.3709c-1.7112 0-3.0274 1.3162-3.0274 3.0273v33.4324c0 1.7111-1.3162 3.0273-3.0273 3.0273h-7.3709c-1.7112 0-3.0274 1.3163-3.0274 3.0274v23.2973h-13.4256z"/></g></svg>

<svg width="93" height="93" viewBox="0 0 93 93" fill="none" xmlns="http://www.w3.org/2000/svg">
<g clip-path="url(#clip0_526_15)">
<path d="M0.0703128 69.4954C0.0703129 67.7843 1.38655 66.468 3.09765 66.468H10.4686C12.1797 66.468 13.4959 65.1518 13.4959 63.4407V30.0083C13.4959 28.2972 14.8121 26.981 16.5233 26.981H23.8942C25.6053 26.981 26.9215 25.6647 26.9215 23.9536V0.65625H40.3471V23.9536C40.3471 25.6647 39.0309 26.981 37.3198 26.981H29.9489C28.2378 26.981 26.9215 28.2972 26.9215 30.0083V63.4407C26.9215 65.1518 25.6053 66.468 23.8942 66.468H16.5233C14.8121 66.468 13.4959 67.7843 13.4959 69.4954V92.7927H0.0703125L0.0703128 69.4954Z" fill="black"/>
<path d="M26.1582 69.4954C26.1582 67.7843 27.4744 66.468 29.1856 66.468H36.5565C38.2676 66.468 39.5838 65.1518 39.5838 63.4407V30.0083C39.5838 28.2972 40.9 26.981 42.6112 26.981H49.9821C51.6932 26.981 53.0094 25.6647 53.0094 23.9536V0.65625H66.435V23.9536C66.435 25.6647 65.1188 26.981 63.4077 26.981H56.0368C54.3256 26.981 53.0094 28.2972 53.0094 30.0083V63.4407C53.0094 65.1518 51.6932 66.468 49.9821 66.468H42.6112C40.9 66.468 39.5838 67.7843 39.5838 69.4954V92.7927H26.1582V69.4954Z" fill="black"/>
<path d="M52.2461 69.4954C52.2461 67.7843 53.5623 66.468 55.2734 66.468H62.6444C64.3555 66.468 65.6717 65.1518 65.6717 63.4407V30.0083C65.6717 28.2972 66.9879 26.981 68.6991 26.981H76.07C77.7811 26.981 79.0973 25.6647 79.0973 23.9536V0.65625H92.5229V23.9536C92.5229 25.6647 91.2067 26.981 89.4956 26.981H82.1247C80.4135 26.981 79.0973 28.2972 79.0973 30.0083V63.4407C79.0973 65.1518 77.7811 66.468 76.07 66.468H68.6991C66.9879 66.468 65.6717 67.7843 65.6717 69.4954V92.7927H52.2461V69.4954Z" fill="black"/>
</g>
<defs>
<clipPath id="clip0_526_15">
<rect width="93" height="93" fill="white"/>
</clipPath>
</defs>
</svg>
